ukui-icon-theme-default/scalable/mimetypes/application-x-shellscript.svg

<?xml version="1.0" encoding="utf-8"?>
<!-- Generator: Adobe Illustrator 24.0.0, SVG Export Plug-In . SVG Version: 6.00 Build 0)  -->
<svg version="1.1" id="图层_1" xmlns="http://www.w3.org/2000/svg" xmlns:xlink="http://www.w3.org/1999/xlink" x="0px" y="0px"
	 viewBox="0 0 96 96" enable-background="new 0 0 96 96" xml:space="preserve">
<title>96</title>
<g id="白色">
	<g id="_96">
		<g id="_48">
			
				<linearGradient id="SVGID_1_" gradientUnits="userSpaceOnUse" x1="48" y1="6.5" x2="48" y2="89.5" gradientTransform="matrix(1 0 0 -1 0 96)">
				<stop  offset="0" style="stop-color:#D6D9E6"/>
				<stop  offset="1" style="stop-color:#F5F5F5"/>
			</linearGradient>
			<path fill="url(#SVGID_1_)" d="M23,89.5c-4.7,0-8.5-3.8-8.5-8.5V15c0-4.7,3.8-8.5,8.5-8.5h50c4.7,0,8.5,3.8,8.5,8.5v53.8
				L60.8,89.5H23z"/>
			<path fill="#C4C6CC" d="M73,7c4.4,0,8,3.6,8,8v53.6L60.6,89H23c-4.4,0-8-3.6-8-8V15c0-4.4,3.6-8,8-8H73 M73,6H23c-5,0-9,4-9,9v66
				c0,5,4,9,9,9h38l21-21V15C82,10,78,6,73,6z"/>
		</g>
		
			<linearGradient id="SVGID_2_" gradientUnits="userSpaceOnUse" x1="63.6598" y1="46.9703" x2="70.4798" y2="52.6503" gradientTransform="matrix(1 0 0 1 0 26)">
			<stop  offset="0" style="stop-color:#000000;stop-opacity:0.1"/>
			<stop  offset="1" style="stop-color:#000000;stop-opacity:5.000000e-02"/>
		</linearGradient>
		<path fill="url(#SVGID_2_)" d="M67,69h15L61,90V75C61,71.7,63.7,69,67,69z"/>
		<g id="_48-3">
			
				<polyline opacity="0.8" fill="none" stroke="#818696" stroke-width="3" stroke-miterlimit="10" enable-background="new    " points="
				28,24 37.8,32 28,40 			"/>
			<rect x="43" y="40" opacity="0.8" fill="#818696" enable-background="new    " width="17" height="3"/>
		</g>
	</g>
</g>
</svg>

<svg xmlns="http://www.w3.org/2000/svg" xmlns:xlink="http://www.w3.org/1999/xlink" viewBox="0 0 96 96"><defs><style>.cls-1{fill:url(#未命名的渐变_46);}.cls-2{fill:#c4c6cc;}.cls-3{fill:url(#未命名的渐变_250);}.cls-4{fill:none;stroke:#818696;stroke-miterlimit:10;stroke-width:3px;}.cls-4,.cls-5{opacity:0.8;}.cls-5{fill:#818696;}</style><linearGradient id="未命名的渐变_46" x1="48" y1="89.5" x2="48" y2="6.5" gradientUnits="userSpaceOnUse"><stop offset="0" stop-color="#d6d9e6"/><stop offset="1" stop-color="#f5f5f5"/></linearGradient><linearGradient id="未命名的渐变_250" x1="63.66" y1="49.03" x2="70.48" y2="43.35" gradientTransform="matrix(1, 0, 0, -1, 0, 122)" gradientUnits="userSpaceOnUse"><stop offset="0" stop-opacity="0.1"/><stop offset="1" stop-opacity="0.05"/></linearGradient></defs><title>96</title><g id="白色"><g id="_96" data-name="96"><g id="_48" data-name=" 48"><path class="cls-1" d="M23,89.5A8.51,8.51,0,0,1,14.5,81V15A8.51,8.51,0,0,1,23,6.5H73A8.51,8.51,0,0,1,81.5,15V68.79L60.79,89.5Z"/><path class="cls-2" d="M73,7a8,8,0,0,1,8,8V68.59L60.59,89H23a8,8,0,0,1-8-8V15a8,8,0,0,1,8-8H73m0-1H23a9,9,0,0,0-9,9V81a9,9,0,0,0,9,9H61L82,69V15a9,9,0,0,0-9-9Z"/></g><path class="cls-3" d="M67,69H82L61,90V75A6,6,0,0,1,67,69Z"/><g id="_48-3" data-name=" 48-3"><polyline class="cls-4" points="28 24 37.75 32 28 40"/><rect class="cls-5" x="43" y="40" width="17" height="3"/></g></g></g></svg>
